usr/share/icons/biglinux-icons-material/22/actions/draw-line.svg

<svg xmlns="http://www.w3.org/2000/svg" viewBox="0 0 22 22">
  <defs id="defs3051">
    <style type="text/css" id="current-color-scheme">
      .ColorScheme-Text {
        color:#dedede;
      }
      </style>
  </defs>
 <path 
    style="fill:currentColor;fill-opacity:1;stroke:none" 
	d="m16 3v2.3125l-10.6875 10.6875h-2.3125v3h3v-2.3125l10.6875-10.6875h2.3125v-3h-3m1 1h1v1h-1v-1m-13 13h1v1h-1v-1"
    class="ColorScheme-Text"
    />  
</svg>

<svg xmlns="http://www.w3.org/2000/svg" viewBox="0 0 22 22"><path d="M16 3v2.313L5.312 16H3v3h3v-2.313L16.688 6H19V3h-3m1 1h1v1h-1V4M4 17h1v1H4v-1" style="fill:currentColor;fill-opacity:1;stroke:none;color:#dedede"/></svg>
